svgs/light/tv.svg

<svg xmlns="http://www.w3.org/2000/svg" viewBox="0 0 640 512"><!-- Font Awesome Pro 6.0.0-alpha2 by @fontawesome - https://fontawesome.com License - https://fontawesome.com/license (Commercial License) --><path d="M576 0H64C28.654 0 0 28.654 0 64V384C0 419.346 28.654 448 64 448H576C611.348 448 640 419.346 640 384V64C640 28.654 611.348 0 576 0ZM608 384C608 401.645 593.645 416 576 416H64C46.355 416 32 401.645 32 384V64C32 46.355 46.355 32 64 32H576C593.645 32 608 46.355 608 64V384ZM528 480H112C103.164 480 96 487.162 96 496C96 504.836 103.164 512 112 512H528C536.838 512 544 504.836 544 496C544 487.162 536.838 480 528 480Z"/></svg>

<svg xmlns="http://www.w3.org/2000/svg" viewBox="0 0 640 512"><!--! Font Awesome Pro 6.3.0 by @fontawesome - https://fontawesome.com License - https://fontawesome.com/license (Commercial License) Copyright 2023 Fonticons, Inc. --><path d="M576 0H64C28.65 0 0 28.65 0 64v320c0 35.35 28.65 64 64 64h512c35.35 0 64-28.65 64-64V64C640 28.65 611.3 0 576 0zM608 384c0 17.64-14.36 32-32 32H64c-17.64 0-32-14.36-32-32V64c0-17.64 14.36-32 32-32h512c17.64 0 32 14.36 32 32V384zM528 480h-416C103.2 480 96 487.2 96 496C96 504.8 103.2 512 112 512h416c8.838 0 16-7.164 16-16C544 487.2 536.8 480 528 480z"/></svg>
